X: 1
T: Bu\vcimi\vs
O: Pinewoods Collection
Z: 1997 by John Chambers <jc@trillian.mit.edu> http://trillian.mit.edu/~jc/music/abc/
N: The book has all the accidentals in the "B" section written out.
M: 8+7/16
L: 1/16
P: ABC,ABC,A
K: Ador
"A"|: "Am"A2de eAeA | ~e2d dcde | (~c2.B2) (~c2.B2) |1,3 "G"GFG "Am"~A2AG :|2,4 "G"GFG "Am"~A2A2 :|
   |: "G"cGBG cGBG | GFG "Am"ABcd | "G"cGBG cGBG | GFG "Am"~A2"fine"A2 :|
"B"|: "Am"cddB cABG | ~A2B ~c2cG | cddB cABG | ~A2d ~A2A2 :|
K:_B^c
   |: Afed ecdB | cde ~c2BA | ABcd fd~e2 | "Gm"cde "A"~c2BA :|
   |: "A"cd~e2 cd~e2 | "Gm"dcB "A"~c2BA | ABcd fd~e2 | "Gm"dcB "A"~c2c2 :|
   |: "A"deeA deeA| "Gm"fed "A"~c2BA | deeA deeA | "Gm"fed "A"~e2eA :|
K: A
"C"|: "A"de~c2 de~c2 | AGA "E7"Bcde | "A"de~c2 de~c2 | "B7"AcA "E"B2B2 :|
%%text Note: The CFO's version has one more part than this version, just after the "B" line.
